resources/svg/loop.svg

<svg xmlns="http://www.w3.org/2000/svg" viewBox="0 0 15 15" fill="currentColor"><path fill-rule="evenodd" clip-rule="evenodd" d="M13.2929 3.00001L11.1464 0.853561L11.8536 0.146454L14.8536 3.14645C15.0488 3.34172 15.0488 3.6583 14.8536 3.85356L11.8536 6.85356L11.1464 6.14645L13.2929 4.00001H3.5C2.11929 4.00001 1 5.1193 1 6.50001V8.00001H0V6.50001C0 4.56701 1.567 3.00001 3.5 3.00001H13.2929ZM15 7.00001V8.50001C15 10.433 13.433 12 11.5 12H1.70711L3.85355 14.1465L3.14644 14.8536L0.146447 11.8536C-0.0488153 11.6583 -0.0488153 11.3417 0.146447 11.1465L3.14645 8.14645L3.85355 8.85356L1.70711 11H11.5C12.8807 11 14 9.88072 14 8.50001V7.00001H15Z" fill="black"/></svg>

<svg xmlns="http://www.w3.org/2000/svg" viewBox="0 0 15 15" fill="currentColor"><path fill-rule="evenodd" clip-rule="evenodd" d="M13.293 3L11.146.854l.708-.708 3 3a.5.5 0 010 .708l-3 3-.708-.708L13.293 4H3.5A2.5 2.5 0 001 6.5V8H0V6.5A3.5 3.5 0 013.5 3h9.793zM15 7v1.5a3.5 3.5 0 01-3.5 3.5H1.707l2.147 2.146-.708.708-3-3a.5.5 0 010-.707l3-3 .708.707L1.707 11H11.5A2.5 2.5 0 0014 8.5V7h1z" fill="currentColor"/></svg>
